assets/images/icons/src/play-circle-o.svg

<?xml version="1.0" encoding="utf-8"?>
<!-- Generated by IcoMoon.io -->
<!DOCTYPE svg PUBLIC "-//W3C//DTD SVG 1.1//EN" "http://www.w3.org/Graphics/SVG/1.1/DTD/svg11.dtd">
<svg version="1.1" xmlns="http://www.w3.org/2000/svg" xmlns:xlink="http://www.w3.org/1999/xlink" width="12" height="14" viewBox="0 0 12 14">
<path fill="#444444" d="M9.25 7q0 0.289-0.25 0.43l-4.25 2.5q-0.117 0.070-0.25 0.070-0.125 0-0.25-0.062-0.25-0.148-0.25-0.438v-5q0-0.289 0.25-0.438 0.258-0.141 0.5 0.008l4.25 2.5q0.25 0.141 0.25 0.43zM10.25 7q0-1.156-0.57-2.133t-1.547-1.547-2.133-0.57-2.133 0.57-1.547 1.547-0.57 2.133 0.57 2.133 1.547 1.547 2.133 0.57 2.133-0.57 1.547-1.547 0.57-2.133zM12 7q0 1.633-0.805 3.012t-2.184 2.184-3.012 0.805-3.012-0.805-2.184-2.184-0.805-3.012 0.805-3.012 2.184-2.184 3.012-0.805 3.012 0.805 2.184 2.184 0.805 3.012z"></path>
</svg>

<svg xmlns="http://www.w3.org/2000/svg" width="12" height="14" viewBox="0 0 12 14"><path fill="#444" d="M9.25 7q0 .289-.25.43l-4.25 2.5q-.117.07-.25.07-.125 0-.25-.062Q4 9.79 4 9.5v-5q0-.289.25-.438.258-.141.5.008L9 6.57q.25.141.25.43zm1 0q0-1.156-.57-2.133T8.133 3.32 6 2.75t-2.133.57T2.32 4.867 1.75 7t.57 2.133 1.547 1.547T6 11.25t2.133-.57T9.68 9.133 10.25 7zM12 7q0 1.633-.805 3.012t-2.184 2.184-3.012.805-3.012-.805-2.184-2.184T-.002 7t.805-3.012 2.184-2.184T5.999.999t3.012.805 2.184 2.184T12 7z"/></svg>
